icon-themes/sifr_svg/cmd/sc_romanlowliststyle.svg

<svg viewBox="0 0 16 16" xmlns="http://www.w3.org/2000/svg"><path d="m4 1v1h1v-1zm3 0v2h8v-2zm-3 2v3h1v-3zm3 1v2h4v-2zm-5 5v1h1v-1zm2 0v1h1v-1zm3 0v2h8v-2zm-5 2v3h1v-3zm2 0v3h1v-3zm3 1v2h4v-2z" fill="#555753"/></svg>

<svg xmlns="http://www.w3.org/2000/svg" viewBox="0 0 16 16">
  <path
     style="fill:#555753"
     d="M 4 1 L 4 2 L 5 2 L 5 1 L 4 1 z M 7 1 L 7 3 L 15 3 L 15 1 L 7 1 z M 4 3 L 4 6 L 5 6 L 5 3 L 4 3 z M 7 4 L 7 6 L 11 6 L 11 4 L 7 4 z M 2 9 L 2 10 L 3 10 L 3 9 L 2 9 z M 4 9 L 4 10 L 5 10 L 5 9 L 4 9 z M 7 9 L 7 11 L 15 11 L 15 9 L 7 9 z M 2 11 L 2 14 L 3 14 L 3 11 L 2 11 z M 4 11 L 4 14 L 5 14 L 5 11 L 4 11 z M 7 12 L 7 14 L 11 14 L 11 12 L 7 12 z "
     />
</svg>
